dist/icons/svgs/share-solid.svg

<svg xmlns="http://www.w3.org/2000/svg" width="24" height="24" fill="currentcolor" class="icon-share-solid" viewBox="0 0 24 24">
  <path d="M13.9922 3.3672C14.4219 3.17189 14.9688 3.25002 15.3203 3.60158L21.5703 9.22658C21.8438 9.46096 22 9.77346 22 10.125C22 10.5156 21.8438 10.8281 21.5703 11.0625L15.3203 16.6875C14.9688 17.0391 14.4219 17.1172 13.9922 16.9219C13.5234 16.7266 13.25 16.2578 13.25 15.75V13.25H9.5C7.42969 13.25 5.75 14.9297 5.75 17C5.75 18.211 6.21875 18.875 6.60938 19.2266C6.80469 19.4219 7 19.6953 7 20.0078C7 20.4375 6.64844 20.75 6.21875 20.75C6.10156 20.75 5.98438 20.75 5.90625 20.711C5.16406 20.2813 2 18.3281 2 13.875C2 10.086 5.04688 7.00002 8.875 7.00002H13.25V4.50002C13.25 4.03127 13.5234 3.56252 13.9922 3.3672Z"/>
</svg>

<svg xmlns="http://www.w3.org/2000/svg" width="24" height="24" fill="currentColor" class="icon-share-solid" viewBox="0 0 24 24">
  <path d="M13.992 3.367c.43-.195.977-.117 1.328.235l6.25 5.625c.274.234.43.546.43.898 0 .39-.156.703-.43.938l-6.25 5.624c-.351.352-.898.43-1.328.235-.469-.195-.742-.664-.742-1.172v-2.5H9.5c-2.07 0-3.75 1.68-3.75 3.75 0 1.211.469 1.875.86 2.227.195.195.39.468.39.78 0 .43-.352.743-.781.743-.117 0-.235 0-.313-.039C5.164 20.281 2 18.328 2 13.875A6.86 6.86 0 0 1 8.875 7h4.375V4.5c0-.469.273-.937.742-1.133"/>
</svg>
